**kern	**text
*clefG2	*
*k[f#]	*
*M4/4	*
*MM220	*
=1	=1
1r	.
=2	=2
1r	.
=3	=3
1r	.
=4	=4
1r	.
=5	=5
1r	.
=6	=6
1r	.
=7	=7
1r	.
=8	=8
1r	.
=9	=9
1r	.
=10	=10
1r	.
=11	=11
1r	.
=12	=12
1r	.
=13	=13
1r	.
=14	=14
1r	.
=15	=15
4f#	za
8r	.
32r	.
16.f#	to
5f#	ka
10f#L	zo
10e	e
[10dJ	te
=16	=16
32dKLL_	.
16.d] 16.e	yo
16.e	n
[32f#JJk	ju
4f#]	.
8BL	me
8B'J	i
4r	.
=17	=17
*^	*
*	*^	*
1r	4f#	2r	.
.	8r	.	.
.	16.f#LL	.	na
.	[32f#JJk	.	ga
.	8f#L_	4r	.
.	32f#KL]	.	.
.	16.f#JJ	.	me
.	4e'	8r	o
.	.	[8d/	hi
=18	=18	=18	=18
2a'	4r	4d/]	ka
.	4f#	4r	ra
2r	4e	2r	.
.	4f#	.	ru
*	*v	*v	*
=19	=19	=19
1r	4f#	.
.	8r	.
.	32r	.
.	16.f#	na
.	5f#	chi
.	10f#L	i
.	10e	sa
.	[10dJ	na
=20	=20	=20
*	*^	*
4r	4d]	2e'/	.
2f#'	4r	.	mi
.	2B'	2r	mo
4r	.	.	.
*clefF4	*	*	*
=21	=21	=21	=21
4B	2r	2r	mi
4d	.	.	no
2r	4r	2B'/	.
.	[4d	.	sa
=22	=22	=22	=22
2r	4d]	2B'/	.
.	2A'	.	yo
4B	.	2r	ni
4r	4r	.	.
*v	*v	*v	*
*clefG2	*
=23	=23
4f#	so
8r	.
16.f#LL	to
[32f#JJk	i
8f#L_	.
32f#KL]	.
16.f#JJ	ki
8eL	o
8dJ	hi
=24	=24
4e	so
4f#	me
4B	te
8r	.
16r	.
[16f#	ji
=25	=25
4f#]	.
16r	.
32r	.
[32f#KLL	to
16f#]	.
[16f#JJ	a
8f#L]	.
8f#J	ta
12e	ri
6d	mi
=26	=26
4a	wa
4f#	ta
4e	su
4f#	no
=27	=27
4f#	shi
8r	.
16.f#LL	po
[32f#JJk	da
8f#L_	.
32f#KL]	.
16.f#JJ	shi
8eL	ta
8dJ	ra
=28	=28
4e	mo
4f#	sai
*clefF4	*
4B	go
4B	chi
=29	=29
*^	*
*	*^	*
4B	2r	4r	ku
4r	.	2d'/	.
2r	2B'	.	.
*clefG2	*	*	*
.	.	[4d/	i
=30	=30	=30	=30
2r	2a'	4d/]	.
.	.	2f#'/	o
4a	2r	.	shi
4a	.	4r	tsu
*v	*v	*v	*
=31	=31
2b	so
2a	yo
=32	=32
2f#	ze
[4e	ta
16eKL]	.
8.eJ	i
=33	=33
*^	*
2.f#	2r	ni
.	8r	.
.	16r	.
.	[16f#	ho
4r	4f#_	.
=34	=34	=34
8.aL	4f#]	o
[16aJk	.	n
32aKLL]	4r	.
[16.f#J	.	shi
8f#J_	.	.
16f#KL]	2r	.
8e	.	i
[16d#XJk	.	n
16d#KL]	.	.
8.dnJ	.	wa
*v	*v	*
=35	=35
2B	ka
2d	ku
=36	=36
*^	*
2r	2.e	.
[4.f#	.	ki
.	4r	.
16f#LL]	.	.
16g#XJJ	.	i
*v	*v	*
=37	=37
2.f#	ru
8r	.
16r	.
[16a	ke
=38	=38
8aL]	.
8aJ	o
4f#	to
4e	su
[4d	no
=39	=39
20dLL]	.
[20eJJ	wa
5e]	.
10f#L	ta
[10BJ	shi
8BL_	.
8B] [8d	hi
8d]	.
[8eJ	to
=40	=40
4e]	.
6f#	ri
[12B	da
8BL_	.
8BJ] [8d	ke
4d]	.
=41	=41
8.f#L	i
[16gJk	ki
8.gL]	.
[16f#Jk	no
8f#]	.
16r	.
[16g	ko
12.g]	.
24r	.
[12a	ru
=42	=42
8.aL]	.
[16gJk	ta
4g]	.
4b-X	me
8r	.
16r	.
[16bn	sa
=43	=43
2b]	.
2b	sa
=44	=44
4b	mi
8aL	ko
16g#XL	ku
[16bJJ	da
4b]	.
8r	.
16r	.
[16b	se
=45	=45
4b]	.
8.bL	n
[16bJk	se
8.bL]	.
[16bJk	i
32bKLL]	.
[16.ddJ	ni
8ddJ]	.
=46	=46
8.bL	i
[16aJk	te
8aL]	.
16.aL	ya
[32bJJk	ro
8.bL]	.
[16f#Jk	ho
12f#]	.
6a	ra
=47	=47
2b	ho
[4.b	ra
16bLL]	.
[16bJJ	ko
=48	=48
4b]	.
4a	na
4.b	ni
16r	.
[16b	wa
=49	=49
4b]	.
12a	ru
6a	i
[8bL	ya
32bKL]	.
16.bJJ	tsu
8bL	ra
8aJ	ga
=50	=50
*^	*
4ee	2r	hi
4cc#X	.	fu
4r	2b'	.
[4a	.	yo
*v	*v	*
=51	=51
16aKL]	.
[8.bJ	sa
4b_	.
16bKL]	.
[8.bJ	sa
4b]	.
=52	=52
*^	*
*	*^	*
2b	4r	4r	ma
.	8r	4a/	.
.	32r	.	.
.	16.g#X	.	tsu
2r	2b'	2r	.
*v	*v	*v	*
=53	=53
[4b	wa
16bKL]	.
8.aJ	ru
4b	i
4dd	ko
=54	=54
*^	*
8.bL	4r	ta
16bJk	.	i
4r	2a'	.
4b	.	da
8.f#L	4r	sa
16g#XJk	.	i
*v	*v	*
=55	=55
2b	go
[4.b	no
32bKLL]	.
16.bJJ	hi
=56	=56
4b	to
4a	ri
[4b	ni
24b]	.
24r	.
12r	.
[12b	na
=57	=57
8bL]	.
8b	ru
8a	ma
8aJ	de
5.f#	o
10eL	wa
[10dJ	ra
=58	=58
4d] 4e	na
4f#	i
4b	wa
8r	.
16r	.
[16b	chu
=59	=59
8bL]	.
16.bL	ru
[32aJJk	ri
16.aLL]	.
[32aK	ra
16a]	.
[16bJJ	chu
8bL]	.
16.bL	ru
[32aJJk	ri
16.aLL]	.
[32aK	ra
16a]	.
[16bJJ	da
=60	=60
8.bL]	.
[16bJk	da
16b]	.
16r	.
16r	.
[16b	da
8.b]	.
16r	.
4r	.
=61	=61
1r	.
=62	=62
1r	.
=63	=63
1r	.
=64	=64
1r	.
=65	=65
*^	*
2r	4f#	.
.	6r	.
.	[12f#	to
16r	4f#]	.
[8.f#	.	he
16f#]	8.eL	ta
16r	.	.
8r	.	.
.	[16dJk	wa
=66	=66	=66
4r	16dLL]	.
.	[16e	sa
.	32eK]	.
.	16.eJJ	n
2f#'	4r	ju
.	8.BL	me
.	16BJk	i
4r	4r	.
=67	=67	=67
*	*^	*
1r	4f#	2r	.
.	8r	.	.
.	16.f#LL	.	sa
.	[32f#JJk	.	ku
.	4f#]	4r	.
.	4e	8r	ka
.	.	16r	.
.	.	[16e/	n
=68	=68	=68	=68
2a'	4r	4e/]	kyo
.	4f#	4r	o
2r	4e	2r	.
.	4f#	.	tsu
*v	*v	*v	*
=69	=69
4f#	kin
6r	.
[12f#	cho
8.f#L]	.
[16eJk	ga
8eL]	.
8dJ	ha
=70	=70
8.eL	shi
[16f#Jk	i
8.f#L]	.
[16BJk	te
8.B]	.
16r	.
4r	.
=71	=71
*^	*
*	*^	*
4B	2r	2r	bi
4d	.	.	ri
2r	2B'	4r	.
.	.	[4d/	ri
=72	=72	=72	=72
2r	2a'	4d/]	.
.	.	2f#'/	cha
4a	2r	.	u
4a	.	4r	wa
*v	*v	*v	*
=73	=73
2b	kyo
2a	mo
=74	=74
*^	*
*	*^	*
1r	2f#	2r	.
.	2e'	4r	tsu
.	.	16r	.
.	.	[8.d/	ke
=75	=75	=75	=75
1r	2.f#	4d/]	.
.	.	4r	.
.	.	8r	.
.	.	16r	.
.	.	[16f#/	shi
.	4r	4f#/_	.
=76	=76	=76	=76
2a'	4r	4f#/]	i
.	[4f#	4r	pu
2r	16f#KL]	2r	.
.	8e	.	da
.	[16d#XJk	.	su
.	16d#KL]	.	.
.	8.dnJ	.	wa
*v	*v	*v	*
=77	=77
2B	o
2d	ba
=78	=78
*^	*
2r	2.e	.
[4.f#	.	sa
.	4r	.
16f#LL]	.	.
16g#XJJ	.	a
*v	*v	*
=79	=79
2.f#	n
8r	.
16r	.
[16a	ke
=80	=80
8aL]	.
8aJ	o
4f#	to
4e	su
4d	no
=81	=81
7%2e	bu
7f#	ra
7%2B	ku
7.dL	ri
[14eJk	su
=82	=82
4e_	.
8eL] [8f#	to
16f#L]	.
[16BJJ	no
8.BL]	.
[16dJk	ku
4d]	.
=83	=83
4f#	ra
4g	su
6f#	no
[12g	mi
8.gL]	.
[16aJk	na
=84	=84
4a]	.
4g	sa
4b-X	n
8r	.
16r	.
[16bn	sa
=85	=85
2b]	.
2b	sa
=86	=86
4b	mi
8aL	ko
16g#XL	ku
[16bJJ	da
4b]	.
8r	.
16r	.
[16b	se
=87	=87
4b]	.
8.bL	n
[16bJk	se
8.bL]	.
[16bJk	i
32bKLL]	.
[16.ddJ	ni
8ddJ]	.
=88	=88
8.bL	i
[16aJk	te
8aL]	.
16.aL	ya
[32bJJk	ro
8.bL]	.
[16f#Jk	ku
12f#]	.
6a	ru
=89	=89
2b	u
[4.b	ta
16bLL]	.
16b'JJ	a
=90	=90
4b	ta
4a	ma
4.b	ni
16r	.
[16b	me
=91	=91
8.bL]	.
[16aJk	su
4a]	.
4b	o
4cc#X	i
=92	=92
*^	*
*	*^	*
4ee	2r	2r	re
4cc#X	.	.	ta
2r	2b'	4r	.
.	.	[4a/	ru
*	*v	*v	*
=93	=93	=93
2b	4a]	sa
.	4r	.
2b	2r	sa
=94	=94	=94
8r	7.b	.
16r	.	.
[16b	.	ta
.	14r	.
32b]	.	.
32r	.	.
.	7g#XL	hi
16r	.	.
8r	.	.
.	14g#Jk	to
2r	14r	.
.	7b	ri
.	7%2r	.
*v	*v	*
=95	=95
[4b	ki
16bKL]	.
[8.aJ	e
16aKL]	.
[8.bJ	cha
16bKL]	.
8.ddJ	i
=96	=96
*^	*
4b	4r	ma
4r	2a'	.
4b	.	ta
8.f#L	4r	sa
16g#XJk	.	i
*v	*v	*
=97	=97
2b	go
[4.b	no
32bKLL]	.
16.bJJ	hi
=98	=98
4b	to
4a	ri
[4b	ni
24b]	.
24r	.
12r	.
[12b	na
=99	=99
8bL]	.
8b	ru
8a	ma
8aJ	de
5.f#	o
10eL	wa
[10dJ	ra
=100	=100
4d] 4e	na
4f#	i
4b	wa
4r	.
=101	=101
8.bL	chu
[16bJk	ru
32bKLL]	.
[16.a	ri
32aK]	.
16.aJJ	ra
8.bL	chu
[16bJk	ru
32bKLL]	.
[16.a	ri
32aK]	.
16.aJJ	ra
=102	=102
4b	da
4b'	da
4b	da
4r	.
=103	=103
1r	.
=104	=104
1r	.
=105	=105
1r	.
=106	=106
1r	.
=107	=107
2b	sa
[2b	sa
=108	=108
20bLL]	.
[20bJJ	mi
5b]	.
10aL	ko
10g#X'J	ku
2b'	da
=109	=109
[4b	se
16bKL]	.
8.bJ	n
[8.bL	se
32bLL]	.
[32bJJJ	i
16bKL]	.
8.ddJ	ni
=110	=110
*^	*
4b	8r	i
.	16r	.
.	[16a	te
4r	8aL_	.
.	32aKL]	.
.	16.aJJ	ya
2r	4b	.
.	4r	.
*v	*v	*
=111	=111
1r	.
=112	=112
1r	.
=113	=113
1r	.
=114	=114
1r	.
=115	=115
2b	sa
[2b	sa
=116	=116
20bLL]	.
[20bJJ	mi
5b]	.
10aL	ko
10g#X'J	ku
2b'	da
=117	=117
[4b	se
16bKL]	.
8.bJ	n
[8.bL	se
32bLL]	.
[32bJJJ	i
16bKL]	.
8.ddJ	ni
=118	=118
*^	*
4b	8r	i
.	16r	.
.	[16a	te
4r	8aL_	.
.	32aKL]	.
.	16.aJJ	ya
2r	4b	.
.	4r	.
*v	*v	*
=119	=119
1r	.
=120	=120
1r	.
=121	=121
1r	.
=122	=122
2r	.
4r	.
8r	.
16r	.
[16b	chu
=123	=123
8bL]	.
16.bL	ru
[32aJJk	ri
16.aLL]	.
[32aK	ra
16a]	.
[16bJJ	chu
8bL]	.
16.bL	ru
[32aJJk	ri
16.aLL]	.
[32aK	ra
16a]	.
[16bJJ	da
=124	=124
8.bL]	.
[16bJk	da
16b]	.
16r	.
16r	.
[16b	da
8.b]	.
16r	.
4r	.
=125	=125
1r	.
=126	=126
1r	.
=127	=127
[8bL	chu
32bKL]	.
16.bJJ	ru
8aL	ri
16.aL	ra
[32bJJk	chu
8bL_	.
32bKL]	.
16.bJJ	ru
8aL	ri
8aJ	ra
=128	=128
4b'	da
4b'	da
4b	da
8r	.
16r	.
[16b	chu
=129	=129
8bL]	.
16.bL	ru
[32aJJk	ri
16.aLL]	.
[32aK	ra
16a]	.
[16bJJ	chu
8bL]	.
16.bL	ru
[32aJJk	ri
16.aLL]	.
[32aK	ra
16a]	.
[16ff#JJ	da
=130	=130
8.ff#L]	.
[16ff#Jk	da
16ff#]	.
16r	.
16r	.
[16ff#	da
8.ff#]	.
16r	.
4ff#	da
=131	=131
[1ff#	da
=132	=132
2ff#]	.
2r	.
=133	=133
1r	.
=134	=134
1r	.
=135	=135
1r	.
=136	=136
1r	.
=137	=137
1r	.
=138	=138
1r	.
=139	=139
1r	.
=140	=140
1r	.
=141	=141
1r	.
=142	=142
1r	.
=143	=143
20r	.
[20e	wa
5e]	.
10f#L	ta
[10BJ	shi
8BL_	.
8B] [8d	hi
8d]	.
[8eJ	to
=144	=144
4e]	.
6f#	ri
[12B	da
8BL_	.
8BJ] [8d	ke
4d]	.
=145	=145
8.f#L	i
[16gJk	ki
8.gL]	.
[16f#Jk	no
8f#]	.
16r	.
[16g	ko
12.g]	.
24r	.
[12a	ru
=146	=146
8.aL]	.
[16gJk	ta
4g]	.
4b-X	me
8r	.
16r	.
[16bn	sa
=147	=147
2b]	.
2b	sa
=148	=148
4b	mi
8aL	ko
16g#XL	ku
[16bJJ	da
4b]	.
8r	.
16r	.
[16b	se
=149	=149
4b]	.
8.bL	n
[16bJk	se
8.bL]	.
[16bJk	i
32bKLL]	.
[16.ddJ	ni
8ddJ]	.
=150	=150
8.bL	i
[16aJk	te
8aL]	.
16.aL	ya
[32bJJk	ro
8.bL]	.
[16f#Jk	a
12f#]	.
6a	ra
=151	=151
2b	ma
[4.b	mo
16bLL]	.
16b'JJ	i
=152	=152
4b	na
4a	i
4.b	no
16r	.
[16b	ku
=153	=153
4b]	.
12a	ra
6a	su
[8bL	me
32bKL]	.
16.bJJ	i
8bL	to
8aJ	wa
=154	=154
*^	*
4ee	2r	ze
4cc#X	.	ro
4r	2b'	.
[4a	.	i
*v	*v	*
=155	=155
16aKL]	.
[8.bJ	sa
4b_	.
16bKL]	.
[8.bJ	sa
4b]	.
=156	=156
*^	*
*	*^	*
2b	4r	4r	ma
.	8r	4a/	.
.	32r	.	.
.	16.g#X	.	tsu
2r	2b'	2r	.
*v	*v	*v	*
=157	=157
[4b	se
16bKL]	.
8.bJ	n
[8.bL	se
32bLL]	.
[32bJJJ	i
16bKL]	.
8.ddJ	mo
=158	=158
*^	*
4b	8r	ya
.	16r	.
.	[16a	te
4r	8aL_	.
.	32aKL]	.
.	16.aJJ	ya
2r	4b	.
.	8.f#L	sa
.	16g#XJk	i
*v	*v	*
=159	=159
2b	go
[4.b	no
32bKLL]	.
16.bJJ	hi
=160	=160
4b	to
4a	ri
[4b	ni
24b]	.
24r	.
12r	.
[12b	na
=161	=161
8bL]	.
8b	ru
8a	ma
8aJ	de
5.f#	o
10eL	wa
[10dJ	ra
=162	=162
4d] 4e	na
4f#	i
4b	wa
8r	.
16r	.
[16b	chu
=163	=163
8bL]	.
16.bL	ru
[32aJJk	ri
16.aLL]	.
[32aK	ra
16a]	.
[16bJJ	chu
8bL]	.
16.bL	ru
[32aJJk	ri
16.aLL]	.
[32aK	ra
16a]	.
[16bJJ	da
=164	=164
8.bL]	.
[16bJk	da
16b]	.
16r	.
16r	.
[16b	da
8.b]	.
16r	.
4r	.
=165	=165
[8bL	chu
32bKL]	.
16.bJJ	ru
8aL	ri
16.aL	ra
[32bJJk	chu
8bL_	.
32bKL]	.
16.bJJ	ru
8aL	ri
8aJ	ra
=166	=166
4b'	da
4b'	da
4b	da
4r	.
==	==
*-	*-
